assets/Blueberries/Flat/blueberries_flat.svg

<svg width="32" height="32" viewBox="0 0 32 32" fill="none" xmlns="http://www.w3.org/2000/svg">
<path d="M26.3939 2.06272C25.8448 2.07385 25.5757 2.51118 25.5421 2.73532L27.7612 4.40527L29.2967 6.50117C29.5825 6.39472 29.8627 6.12565 29.9132 5.85671C29.9916 5.33556 29.8515 5.10573 29.6554 4.90963C29.4593 4.71353 29.2967 4.66301 28.7756 4.65745C29.2127 4.40527 29.4929 3.9457 29.3752 3.39095C29.3752 3.39095 29.2519 2.8305 28.6859 2.66803C28.1984 2.51668 27.666 2.66803 27.3465 3.25645C27.369 2.98741 27.2961 2.62886 27.2401 2.55034C27.184 2.47183 26.9431 2.05159 26.3939 2.06272Z" fill="#6B438B"/>
<circle cx="22.5" cy="9.5" r="7.5" fill="#8D65C5"/>
<circle cx="10" cy="11" r="8" fill="#6B438B"/>
<path d="M9.25342 5.28383C8.19968 4.70988 7.25008 5.47168 6.98924 5.52401C6.7284 5.57633 5.72677 5.11688 4.9234 5.99342C4.12003 6.86995 4.50608 7.7253 4.49562 8.09058C4.48516 8.45586 3.75483 9.4262 4.33911 10.3025C4.9234 11.1788 6.00852 11.1786 6.30064 11.3562C6.59276 11.5338 6.88487 12.264 8.13696 12.1492C9.38906 12.0343 9.58726 10.8867 9.78548 10.6781C9.9837 10.4696 11.194 9.96852 11.194 8.8418C11.194 7.71508 10.3071 7.28729 10.2133 7.0471C10.1194 6.80691 10.3072 5.85778 9.25342 5.28383Z" fill="#AA7DE5"/>
<circle cx="7.55005" cy="8.54541" r="2.25" fill="#533566"/>
<circle cx="19" cy="21" r="9" fill="#8D65C5"/>
<path d="M23.8522 14.8383C23.2899 14.4343 22.7627 12.9756 21.023 12.9931C19.2834 13.0106 18.9495 14.188 18.4047 14.645C17.8599 15.102 16.1906 15.225 15.7688 16.824C15.347 18.423 16.2785 19.0908 16.5772 19.9343C16.8759 20.7779 16.4893 21.7619 17.6139 22.7985C18.7385 23.8352 20.2674 23.0973 21.023 23.0974C21.7787 23.0975 23.3426 23.853 24.3266 22.904C25.3107 21.9549 25.2229 20.5317 25.4513 19.9343C25.6798 19.337 27.1207 18.0012 26.1718 16.4197C25.2228 14.8382 24.4146 15.2423 23.8522 14.8383Z" fill="#BCA4EB"/>
<circle cx="21.0103" cy="18.4904" r="3.40029" fill="#533566"/>
</svg>

<svg xmlns="http://www.w3.org/2000/svg" width="32" height="32" fill="none"><path fill="#6B438B" d="M26.394 2.063c-.55.01-.818.448-.852.672l2.22 1.67 1.535 2.096c.285-.106.566-.375.616-.644.079-.521-.061-.751-.258-.947-.196-.196-.358-.247-.88-.253.438-.252.718-.711.6-1.266 0 0-.123-.56-.69-.723-.487-.151-1.019 0-1.338.588.022-.269-.05-.627-.107-.706-.056-.078-.297-.498-.846-.487Z"/><circle cx="22.5" cy="9.5" r="7.5" fill="#8D65C5"/><circle cx="10" cy="11" r="8" fill="#6B438B"/><path fill="#AA7DE5" d="M9.253 5.284c-1.053-.574-2.003.188-2.264.24-.26.052-1.262-.407-2.066.47-.803.876-.417 1.731-.427 2.097-.01.365-.741 1.335-.157 2.212.584.876 1.67.876 1.962 1.053.292.178.584.908 1.836.793 1.252-.115 1.45-1.262 1.648-1.47.199-.21 1.409-.71 1.409-1.837s-.887-1.555-.98-1.795c-.095-.24.093-1.19-.96-1.763Z"/><circle cx="7.55" cy="8.545" r="2.25" fill="#533566"/><circle cx="19" cy="21" r="9" fill="#8D65C5"/><path fill="#BCA4EB" d="M23.852 14.838c-.562-.404-1.09-1.862-2.829-1.845-1.74.018-2.073 1.195-2.618 1.652-.545.457-2.214.58-2.636 2.179-.422 1.599.51 2.267.808 3.11.299.844-.088 1.828 1.037 2.864 1.124 1.037 2.653.3 3.409.3.756 0 2.32.755 3.304-.194.984-.95.896-2.372 1.124-2.97.229-.597 1.67-1.933.72-3.514-.948-1.582-1.756-1.178-2.319-1.582Z"/><circle cx="21.01" cy="18.49" r="3.4" fill="#533566"/></svg>
